images/icons/popup-thanks-img.svg

<svg width="250" height="250" viewBox="0 0 250 250" fill="none" xmlns="http://www.w3.org/2000/svg">
<path fill-rule="evenodd" clip-rule="evenodd" d="M0 125C0 194.036 55.9644 250 125 250C194.036 250 250 194.036 250 125C250 55.9644 194.036 0 125 0C55.9644 0 0 55.9644 0 125ZM227.273 125C227.273 181.484 181.484 227.273 125 227.273C68.5163 227.273 22.7273 181.484 22.7273 125C22.7273 68.5163 68.5163 22.7273 125 22.7273C181.484 22.7273 227.273 68.5163 227.273 125Z" fill="#11263A"/>
<path fill-rule="evenodd" clip-rule="evenodd" d="M109.091 143.021L169.238 82.8746L185.308 98.9453L109.091 175.162L66.965 133.036L83.0356 116.966L109.091 143.021Z" fill="#11263A"/>
</svg>

<svg width="250" height="250" fill="none" xmlns="http://www.w3.org/2000/svg"><path fill-rule="evenodd" clip-rule="evenodd" d="M0 125c0 69.036 55.964 125 125 125s125-55.964 125-125S194.036 0 125 0 0 55.964 0 125zm227.273 0c0 56.484-45.789 102.273-102.273 102.273-56.484 0-102.273-45.789-102.273-102.273 0-56.484 45.79-102.273 102.273-102.273 56.484 0 102.273 45.79 102.273 102.273z" fill="#11263A"/><path fill-rule="evenodd" clip-rule="evenodd" d="M109.091 143.021l60.147-60.146 16.07 16.07-76.217 76.217-42.126-42.126 16.07-16.07 26.056 26.055z" fill="#11263A"/></svg>
